X:106
T:Whoop! Do me no harm, good man
M:6/8
L:1/8
K:D
%%score 1 2
V:1 clef-treble
V:2 clef-bass octave=-1
V:1
D|F>GA A>GA&x3D3|B>AG G>FE&D3C3|F>GA A2^G&D3D3|
V:2
[DF]|[DA]3F,3|G,3A,3|D2C B,2E|
V:1
G3-G2D&C>DE A,2x|F>GA A>B=C&x3D3|B>AG !fermata!E2[Dd]&D3D2x|F>GF (E>F)E&D3C2x|D3-D2||
w:||***Whoop!* do me no harm,* good man.*
V:2
A,3-A,2[DF]|[DA]3F,3|G,3!fermata!^G,2[G,E]|[A,F]3[A,G]3|[DF]3-[DF]2||

